X: 20673
T: John Walsh's
R: jig
M: 6/8
K: Amixolydian
|:BAG ~E3|DEG ~A3|BAG ~E3|DEF GFE|
BAG ~E3|DEF G2F|GB/c/d ~g3|edB A3:|
|:aAA gAA|fAA eAA|GB/c/d ~g3|ede gfg|
aAA gAA|fAA eAA|GB/c/d ~g3|edB A3:|

